Pods/ProtonCore-UIFoundations/libraries/UIFoundations/Sources/Assets.xcassets/Images/IconSet/ic-info-circle-filled.imageset/ic-info-circle-filled.svg

<svg width="24" height="24" viewBox="0 0 24 24" fill="none" xmlns="http://www.w3.org/2000/svg">
<path fill-rule="evenodd" clip-rule="evenodd" d="M12 22.5C17.799 22.5 22.5 17.799 22.5 12C22.5 6.20101 17.799 1.5 12 1.5C6.20101 1.5 1.5 6.20101 1.5 12C1.5 17.799 6.20101 22.5 12 22.5ZM14.6249 16.5C14.6249 16.9556 14.2556 17.325 13.7999 17.325H12.2999H10.7999C10.3443 17.325 9.97493 16.9556 9.97493 16.5C9.97493 16.0444 10.3443 15.675 10.7999 15.675H11.4749L11.4749 11.325H11.2499C10.7943 11.325 10.4249 10.9556 10.4249 10.5C10.4249 10.0444 10.7943 9.675 11.2499 9.675H12.2999C12.5187 9.675 12.7286 9.76192 12.8833 9.91664C13.038 10.0714 13.1249 10.2812 13.1249 10.5L13.1249 15.675H13.7999C14.2556 15.675 14.6249 16.0444 14.6249 16.5ZM12 8.10004C12.5799 8.10004 13.05 7.62994 13.05 7.05004C13.05 6.47014 12.5799 6.00004 12 6.00004C11.4201 6.00004 10.95 6.47014 10.95 7.05004C10.95 7.62994 11.4201 8.10004 12 8.10004Z" fill="#0C0C14"/>
</svg>

<svg xmlns="http://www.w3.org/2000/svg" width="24" height="24" viewBox="0 0 24 24">
  <g class="ic-info-circle-filled">
    <path fill-rule="evenodd" d="M12 22.5c5.799 0 10.5-4.701 10.5-10.5S17.799 1.5 12 1.5 1.5 6.201 1.5 12 6.201 22.5 12 22.5Zm2.625-6c0 .456-.37.825-.825.825h-3a.825.825 0 0 1 0-1.65h.675v-4.35h-.225a.825.825 0 0 1 0-1.65h1.05a.825.825 0 0 1 .825.825v5.175h.675c.456 0 .825.37.825.825ZM12 8.1A1.05 1.05 0 1 0 12 6a1.05 1.05 0 0 0 0 2.1Z" class="Icon"/>
  </g>
</svg>
